public/img/icons/emojiHappy.svg

<?xml version="1.0" encoding="UTF-8" standalone="no"?><!DOCTYPE svg PUBLIC "-//W3C//DTD SVG 1.1//EN" "http://www.w3.org/Graphics/SVG/1.1/DTD/svg11.dtd"><svg width="100%" height="100%" viewBox="0 0 78 78" version="1.1" xmlns="http://www.w3.org/2000/svg" xmlns:xlink="http://www.w3.org/1999/xlink" xml:space="preserve" xmlns:serif="http://www.serif.com/" style="fill-rule:evenodd;clip-rule:evenodd;stroke-linejoin:round;stroke-miterlimit:1.41421;"><ellipse cx="39.046" cy="38.944" rx="31.915" ry="32.212" style="fill:#d0ffdd;"/><path d="M15,39c0,13.234 10.766,24 24,24c13.234,0 24,-10.766 24,-24l-48,0Zm24,-39c-21.539,0 -39,17.461 -39,39c0,21.539 17.461,39 39,39c21.539,0 39,-17.461 39,-39c0,-21.539 -17.461,-39 -39,-39Zm0,70.5c-17.396,0 -31.5,-14.104 -31.5,-31.5c0,-17.396 14.104,-31.5 31.5,-31.5c17.396,0 31.5,14.104 31.5,31.5c0,17.396 -14.104,31.5 -31.5,31.5Zm-9,-40.5c2.484,0 4.5,-2.014 4.5,-4.5c0,-2.486 -2.016,-4.5 -4.5,-4.5c-2.484,0 -4.5,2.014 -4.5,4.5c0,2.486 2.016,4.5 4.5,4.5Zm18,0c2.484,0 4.5,-2.014 4.5,-4.5c0,-2.486 -2.016,-4.5 -4.5,-4.5c-2.484,0 -4.5,2.014 -4.5,4.5c0,2.486 2.016,4.5 4.5,4.5Z" style="fill:#333f4f;fill-rule:nonzero;"/></svg>

<?xml version="1.0" ?><!DOCTYPE svg  PUBLIC '-//W3C//DTD SVG 1.1//EN'  'http://www.w3.org/Graphics/SVG/1.1/DTD/svg11.dtd'><svg enable-background="new 0 0 78 78" height="78px" id="Layer_1" version="1.1" viewBox="0 0 78 78" width="78px" xml:space="preserve" xmlns="http://www.w3.org/2000/svg" xmlns:xlink="http://www.w3.org/1999/xlink"><path d="M15,39L15,39c0,13.234,10.766,24,24,24s24-10.766,24-24v0H15z M39,0C17.461,0,0,17.461,0,39s17.461,39,39,39  s39-17.461,39-39S60.539,0,39,0z M39,70.5C21.604,70.5,7.5,56.396,7.5,39S21.604,7.5,39,7.5S70.5,21.604,70.5,39  S56.396,70.5,39,70.5z M30,30c2.484,0,4.5-2.014,4.5-4.5S32.484,21,30,21s-4.5,2.014-4.5,4.5S27.516,30,30,30z M48,30  c2.484,0,4.5-2.014,4.5-4.5S50.484,21,48,21s-4.5,2.014-4.5,4.5S45.516,30,48,30z" fill="#333F4F"/></svg>
